X: 1
T: The Silver Spear
%%vskip -.2cm
C: Trad. Ireland (R-158)
M: C|
L: 1/8
K: D
|: "D"FA (3AAA BA (3AAA | dfed "G"Bc"A7"dA |  "D"FA (3AAA BA (3AAA | "Em"dfed "A"B2AG |
 "D"FA (3AAA BA (3AAA | dfed "G"Bdef | "G"g3e "D"f3e | "A"dfed B2A2 :|
|: "D"fa (3aaa bfaf | "G"gfed Bcde |  "D"fa (3aaa bfaf | "G"gfed "A"B2 A2 |
 "D"fa (3aaa bfaf | "G"gfed Bdef | "G"g3e "D"f3e | "A"dfed B2A2 :|


